X:1
T:James Gibb editions
T:Ich werde nicht sterben, SWV 346 - Schütz
T:#
%%score [ 1 2 ] 3 4
L:1/8
Q:1/4=180
M:3/2
K:C
V:1 treble nm="Violin I" snm="Vn I"
V:2 treble nm="Violin II" snm="Vn II"
V:3 treble nm="Soprano" snm="S"
V:4 bass nm="Continuo"
V:1
 z12 z12 | z24 | z24 | z24 | z24 | z24 | z24 | z24 | z24 | %9
[M:3/2][Q:1/4=216][Q:1/4=216][Q:1/4=216][Q:1/4=216] z12 | z12 | z12 | z12 | z12 | z12 | z12 | z12 | %17
 z12 |[M:3/2] z12 | z12 | z12 | z12 | z12 | z12 | z12 | z12 | z12 |[M:3/2] z12 | z12 | z12 | z12 | %31
 z12 | z12 | z12 | z12 |[M:3/2] z12 | z12 | z12 | z12 | z12 | z12 | z12 | z12 | z12 | %44
[M:3/2][K:treble] z4 z4"^Symphonia" g4 | e4 e4 g4 | e4 e4 g4 | a4 a4 g4 | f12- | f8 g4 | e4 G4 c4 | %51
 B2 A2 B2 G2 A2 F2 | G2 E2 F2 G2 A2 B2 | c2 d2 e2 d2 c2 B2 | A2 G2 G4 ^F4 | G4 d4 g4 | %56
 f2 e2 f2 d2 e2 c2 | d2 _B2 c2 d2 e2 f2 | g2 a2 _b2 a2 g2 f2 | e2 d2 d4 ^c4 | d4 d4 e4 | f8 g4 | %62
 a8 z4 | z4 A4 B4 | c8 d4 | e8 z4 | z4 c4 d4 | e8 f4 | g6 f2 e2 d2 | f2 e2 d6 c2 | !fermata!c12 || %71
[M:4/4] x8 |[M:4/4][Q:1/4=108] z8 | z8 | z8 | z8 | z8 | z8 | %78
[M:4/4][Q:1/4=108][Q:1/4=108][Q:1/4=108][Q:1/4=108] z8 | z8 | z8 |[M:4/4] z8 | z8 | z8 | z8 | z8 | %86
[M:4/4] z8 | z8 | z8 | z8 | z8 | z8 | z8 |[M:4/4] x8 | z4"^Symphonia" B4 | c4 d2 e2 | B4 c2 d2 | %97
 e4 f2 g2 | d6 c2 | B4 A4 | e6 d2 | c4 B4 | A2 B2 c2 d2 | B2 c2 d2 e2 | d2 c2 c4- | c2 BA B4 | %106
 c4 g2 f2 | e2 d2 c2 B2 | c2 d2 e4 | A2 B2 c2 B2 | A2 G2 G4- | G4 ^F4 | G8 |[Q:1/4=120] z2 c4 c2 | %114
[Q:1/4=120]"^presto"[Q:1/4=120][Q:1/4=120][Q:1/4=120] z4 (CD)(EC) | G4 (EF)(GE) | c4 z2 a2 | %117
 ^f2 g2 g3 !courtesy!^f | g4 z4 | (EF)(GE) c4 | (GA)(BG) e4 | (cd)(ec) a4 | %122
"^tarde"[Q:1/4=108] z4 z2 d2 | (ef)(gf) e4 | d4 z4 | %125
[M:4/4][Q:1/4=108][Q:1/4=108][Q:1/4=108][Q:1/4=108] z8 | z8 | z8 | z8 |[M:4/4] z8 || %130
[M:3/2][Q:1/4=216] z12 | z12 | a4 g4 ^f4 | g4 =f4 e4 | d8 z4 | z12 | d4 c4 B4 | %137
[M:3/2][Q:1/4=216][Q:1/4=216][Q:1/4=216][Q:1/4=216] c4 B4 A4 ||[M:4/4][Q:1/4=108] G4 z4 | z8 | z8 | %141
 z8 |[M:4/4][Q:1/4=108][Q:1/4=108][Q:1/4=108][Q:1/4=108] z8 | z8 ||[M:3/2][Q:1/4=216] z12 | z12 | %146
 d4 c4 B4 | c4 B4 A4 |[M:3/2][Q:1/4=216][Q:1/4=216][Q:1/4=216][Q:1/4=216] G8 z4 | z12 | g4 f4 e4 | %151
 f4 e4 d4 ||[M:4/4][Q:1/4=108] c4"^tarde" z2 e2- | e2 ^f2 ^g4 | z2 ^g4 a2 | %155
[M:4/4][Q:1/4=108][Q:1/4=108][Q:1/4=108][Q:1/4=108] b2 z b c'bag | ^fg a2 a3 ^g | %157
[Q:1/4=105] a4[Q:1/4=102] z2[Q:1/4=101] z[Q:1/4=100] c | %158
[Q:1/4=99] B[Q:1/4=98]A[Q:1/4=96] G2[Q:1/4=93] G4 |[Q:1/4=92] !fermata!G16 |] %160
V:2
 z12 z12 | z24 | z24 | z24 | z24 | z24 | z24 | z24 | z24 |[M:3/2] z12 | z12 | z12 | z12 | z12 | %14
 z12 | z12 | z12 | z12 |[M:3/2] z12 | z12 | z12 | z12 | z12 | z12 | z12 | z12 | z12 |[M:3/2] z12 | %28
 z12 | z12 | z12 | z12 | z12 | z12 | z12 |[M:3/2] z12 | z12 | z12 | z12 | z12 | z12 | z12 | z12 | %43
 z12 |[M:3/2][K:treble] z4 z4 B4 | c4 c4 e4 | c4 c4 e4 | f4 f4 g4 | a12- | a8 d4 | g8 z4 | z12 | %52
 z12 | z12 | z4 A4 d4 | B2 A2 G2 A2 B2 c2 | d2 c2 A2 B2 c2 A2 | _B2 d2 e2 f2 g2 a2 | %58
 _b2 a2 g2 f2 e2 d2 | g2 f2 e6 d2 | d8 z4 | z8 z4 | z4 A4 B4 | c8 d4 | e8 z4 | z4 c4 d4 | e8 f4 | %67
 g8 f2 e2 | d4 e2 d2 c2 B2 | d2 c2 c4 B4 | !fermata!c12 ||[M:4/4] x8 |[M:4/4] z8 | z8 | z8 | z8 | %76
 z8 | z8 |[M:4/4] z8 | z8 | z8 |[M:4/4] z8 | z8 | z8 | z8 | z8 |[M:4/4] z8 | z8 | z8 | z8 | z8 | %91
 z8 | z8 |[M:4/4] x8 | z4 ^G4 | A4 B2 c2 | ^G4 A2 B2 | c4 d2 e2 | B4 A4 | d6 c2 | B4 A4 | e6 d2 | %102
 c2 d2 e2 f2 | d2 e2 f2 g2 | f2 e2 e2 dc | d4 g4- | g2 f2 e2 d2 | c2 d2 e4 | A2 B2 c4- | %109
 c2 d2 e2 d2 | c2 B2 A2 G2 | A8 | G8 | z2 G4 G2 | z4 (EF)(GE) | c4 (GA)(BG) | e4 z2 e2 | d2 G2 d4 | %118
 B4 z4 | (CD)(EC) G4 | (EF)(GE) c4 | (AB)(cA) e4 | z2 G2 A4- | A2 _B2 A4 | ^F4 z4 |[M:4/4] z8 | %126
 z8 | z8 | z8 |[M:4/4] z8 ||[M:3/2] z12 | z12 | A4 B2 ^c2 d4 | B4 d4 ^c4 | d8 z4 | z12 | B4 A4 G4 | %137
[M:3/2] E4 G4 ^F4 ||[M:4/4] G4 z4 | z8 | z8 | z8 |[M:4/4] z8 | z8 ||[M:3/2] z12 | z12 | B4 A4 G4 | %147
 E4 G4 ^F4 |[M:3/2] G8 z4 | z8 x4 | e4 d4 c4 | A4 c4 B4 ||[M:4/4] c4 z2 c2- | c2 c2 e4 | %154
 z2 e4 ^f2 |[M:4/4] g4 z2 A2 | dcBA B4 | A2 z e agfe | gfef d4 | !fermata!e16 |] %160
V:3
"^Erster Theil""^Heinrich Schütz\n(1585-1672)""^Ich werde nicht sterben, SWV 346""^Psalm 118:17;\nPsalm 116:3-4" z4 z4 G4 | %1
w: Ich|
 E4 E4 G4 z12 | E4 E4 G4 z12 | A4 A4 G4 z12 | (F12- z12 | F8 G4) z12 | E8 z4 z12 | z4 z4 e4 z12 | %8
w: wer- de, ich|wer- de, ich|wer- de nicht|ster\-||ben,|ich|
 c4 c4 e4 z12 |[M:3/2] c4 c4 e4 | c4 c4 B4 | (A12- | A8 B4) | ^G8 z4 | z12 | z4 G4 c4 | %16
w: wer- de, ich|wer- de, ich|wer- de nicht|ster\-||ben,||son- dern|
 (B2 A2 B2 G2 A2 F2 | G2 E2 F2 G2 A2 B2 | c2 d2 e2 d2 c2 B2 | A2 G2 A8) | G8 z4 | z12 | z12 | %23
w: le\- * * * * *||||ben,|||
 z4 A4 d4 | (c2 B2 c2 A2 B2 G2 | A2 F2 G2 A2 B2 c2 | d2 e2 f2 e2 d2 c2 | B2 A2 B8) | A4 A4 B4 | %29
w: son- dern|le\- * * * * *||||ben und des|
 c8 d4 | e4 E4 ^F4 | G8 A4 | (B6 c2 d4) | c4 c4 B4 | c8 z4 | z4 C4 D4 | E8 ^F4 | G4 G4 A4 | B8 c4 | %39
w: Her- ren|Lob, und des|Her- ren|Lob * *|ver- kün- di-|gen,|und des|Her- ren|Lob, und des|Her- ren|
 d4 D4 E4 | F8 G4 | A4 A4 B4 | c8 d4 | (e6 f2 g4) | (f2 e2) d6 d2 | c8 z4 | z12 | z12 | z12 | z12 | %50
w: Lob, und des|Her- ren|Lob, und des|Her- ren|Lob * *|ver\- * kün- di-|gen.|||||
 z12 | z12 | z12 |[M:3/2] z12 | z12 | z12 | z12 | z12 | z12 | z12 | z12 |[M:3/2] z12 | z12 | z12 | %64
w: ||||||||||||||
 z12 | z12 | z12 | z12 | z12 | z12 | z12 || z8 |[M:4/4] z2 (G3 F/E/ F/E/F/D/ | E2) D2 z2 E2 | %74
w: ||||||||Stri\- * * * * * *|* cke des|
 (^F2 G4) !courtesy!^F2 | z2 (d3 c/B/ c/B/c/A/ | B/A/B/G/ A/G/A/F/ G2) FE | (F3 G) E4 | %78
w: To\- * des,|stri\- * * * * * *|* * * * * * * * * cke des|To\- * des|
 (C/D/) (E/F/) (G/A/) B/c/ (A3/2B/4c/4 F3/2G/4A/4 | E3/2F/4G/4 C3/2D/4E/4 D3/2E/4F/4 G3/2A/4B/4 | %80
w: hat\- * ten * mich * um\- * fan\- * * * * *||
 c3/2d/4e/4 A3/2B/4c/4 B/d/c/d/ B/c/B/c/ | Ac/B/ A/G/^F/E/ !courtesy!^F/D/E/F/ G/A/B/G/ | %82
w: ||
 A/B/c/B/ A2) G2 z2 | z2 D2 F4- | F2 E2 E4- | E2 D2 z GFE | (F3 G) E4 | z GAB (c3 d | B2 c4) B2 | %89
w: * * * * * gen,|und Angst|* der Höl\-|* len hat- ten mich|trof\- * fen,|hat- ten mich trof\- *|* * fen,|
 z2 c2 G2 A2 | _B6 AG | A2 z d A2 =B2 | c8- | c4 d2 e2 | ^G4 z4 | z8 | z8 | z8 | z8 | z8 | z8 | %101
w: ich kam in|Jam- mer und|Not, ich kam in|Jam\-|* mer und|Not.|||||||
 z8 | z8 | z8 | z8 | z8 | z8 | z8 | z8 | z8 | z8 | z8 | z8 | z2 E4 E2 | (CD) (EC) G4 | %115
w: ||||||||||||A- ber|ich * tief * an,|
 (EF) (GE) c4 | z2 c2 B2 cc | (d3 c/B/ A4) | G4 (CD) (EC) | G4 (EF) (GE) | c4 (AB) (cA) | %121
w: ich * rief * an|den Na- men des|Her\- * * *|ren, ich * rief *|an, ich * rief *|an, ich * rief *|
 e4 z2 c2 | B4 d2 d2 | (d6 ^c2) | d4 z2 z ^F | D2 z A ^F2 z d | B2 z A GFFE | EE z c AGG^F | %128
w: an den|Na- men des|Her\- *|ren: O|Herr, o Herr, o|Herr, er- ret- te mei- ne|See- le, er- ret- te mei- ne|
 ^FF z F ^GAAB | B4 A4 ||[M:3/2] A4 G4 ^F4 | G4 =F4 E4 | D8 z4 | z12 | d4 c4 B4 | c4 B4 A4 | %136
w: See- le, er- ret- te mei- ne|See- le.|Und der Herr|ant- wor- tet|mir,||und der Herr|ant- wor- tet|
 G8 z4 |[M:3/2] z12 ||[M:4/4] z4 G2 A2 | B4 B2 c2 | d3 B edcB | dcBA B2 Ac |[M:4/4] edcB fedc | %143
w: mir||und half|mir, und half|mir aus al- len mei- nen,|al- len mei- nen Nö- then, aus|al- len mei- nen, al- len mei- nen|
 d4 c4 ||[M:3/2] d4 c4 B4 | c4 B4 A4 | G8 z4 | z8 x4 |[M:3/2] G4 F4 E4 | F4 E4 D4 | C8 z4 | %151
w: Nö- then,|und der Herr|ant- wor- tet|mir,||und der Herr|ant- wor- tet|mir|
 z8 x4 ||[M:4/4] z4 z2 G2- | G2 A2 B4 | z2 B4 c2 |[M:4/4] d3 d edcB | A2 d2 z2 B2 | edcB fedc | %158
w: |und|* half mir,|und half|mir aus al- len mei- nen|Nö- then, aus|al- len mei- nen, al- len mei- nen,|
 edcc (c3 B) | !fermata!c16 |] %160
w: al- len mei- nen Nö\- *|then.|
V:4
 C,4 A,,4 B,,4 | C,8 B,,4 z12 | C,4 D,4 E,4 z12 | F,4 D,4 E,4 z12 | F,4 F,,4 G,,4 z12 | %5
w: * 6 *|||||
w: |||||
 A,,8 B,,4 z12 | C,4 E,4 F,4 z12 | G,4 C4 B,4 z12 | A,4 ^F,4 ^G,4 z12 |[M:3/2] A,4 C4 B,4 | %10
w: 6 6|||||
w: |||||
 A,4 ^F,4 ^G,4 | A,4 A,,4 B,,4 | C,8 D,4 | E,4 D,4 ^C,4 | D,4 =C,4 B,,4 | C,4 B,,4 A,,4 | %16
w: ||6 6|||* 6 *|
w: ||||||
 G,,4 G,4 F,4 | E,8 D,4 | C,8 E,4- | E,4 D,8 | G,,4 F,4 E,4 | F,4 E,4 D,4 | E,4 D,4 ^C,4 | %23
w: ||* 6|5 *||||
w: |||||||
 D,4 =C,4 B,,4 | A,,4 A,4 G,4 | F,8 E,4 | D,8 F,4- | F,4 E,8 | A,,4 A,4 G,4 | F,4 E,4 D,4 | %30
w: * 6 *|||* 6||||
w: |||||||
 C,8 D,4 | E,4 E,4 ^F,4 | G,4 E,4 F,2 G,2 | A,2 F,2 G,4 G,,4 | C,4 F,,4 G,,4 | A,,8 B,,4 | %36
w: |||* * 4 3|||
w: ||||||
 C,4 C,4 D,4 | E,8 ^F,4 | G,4 G,,4 A,,4 | B,,8 C,4 | D,4 D,4 E,4 | F,8 G,4 | A,4 A,4 B,4 | %43
w: |||||||
w: |||||||
 C4 C,4 E,4 | F,4 G,8 | C,12- | C,8- C4 | F,4 F,4 E,4 | F,8 G,4 | A,8 B,4 | C4 B,4 A,4 | G,8 F,4 | %52
w: ||||||6 6|||
w: |||||||||
 E,8 D,4 | C,8 E,4- | E,4 x4- x4 | G,4 F,4 E,4 | D,4 D4 C4 | _B,8 A,4 | G,6 A,2 _B,4 | x2- x2 A,8 | %60
w: |* 6|* 4|* 6 *|||* 6 *|6 *|
w: ||||||||
 D,12- | D,4 D,4 E,4 | F,8 G,4 | A,12- | A,4 A,4 B,4 | C8 B,4 | A,4 G,4 F,4 | E,8 D,2 C,2 | %68
w: ||||||* * 6||
w: ||||||||
 B,,8 C,4- | C,4 x4- x4 | !fermata!C,12 ||[M:4/4] x8 |[M:4/4] C,4 B,,4 | C,2 G,,2 C,4 | x2- x4 x2 | %75
w: |* 4||||* * 6|6|
w: |||||||
 G,,4 E,2 ^F,2 | G,2 F,2 E,2 C,2- | C,2 B,,2 C,4 | C,B,,A,,G,, F,,4 | C,4 G,,4 | A,,4 E,4 | %81
w: ||4 * *||||
w: ||2 * *||||
 F,2 E,2 D,2 B,,2 | C,2 D,2 G,,4 | z2 G,,2 F,,4 | ^G,,4 A,,3 =G,, | x2- x2 E,,2 F,,2 | G,,4 C,4- | %87
w: * * * 6|||6 * *|7 * *||
w: ||||||
 C,2 B,,2 A,,4 | G,,2 E,,2 x2- x2 | C,4 E,2 F,2 | G,2 G,,2 D,2 E,2 | F,2 D,2 F,2 G,2 | A,4 G,4 | %93
w: |* 6 4||* * 6 *|||
w: ||||||
 x4- x4 | E,4 E,,4 | A,,8 | E,6 D,2 | C,8 | G,4 ^F,4 | G,4 ^F,4 | ^G,4 A,4- | A,4 ^G,4 | %102
w: 5|||* 6||||||
w: |||||||||
 A,4 x2- x2 | x2- x2 F,2 E,2 | x2- x2 A,4 | G,4- G,2 F,2 | E,2 D,2 C,4 | C2 B,2 A,2 G,2 | F,4 E,4 | %109
w: * 5|5 6 *||4 3 *|||* 6|
w: |||||||
 F,4 C,4- | C,4 E,4 | x4- x4 | G,,8 | z2 C,4 C,2 | C,8 | C,4 C,4 | A,,4 G,,2 A,,2 | B,,3 C, D,4 | %118
w: ||4|||||||
w: |||||||||
 G,,4 C,4- | C,4 C,4 | C,4 A,,4- | A,,4 A,,4 | G,,4 ^F,,4 | A,,2 G,,2 x2- x2 | D,2 B,,2 G,,2 A,,2 | %125
w: |||||4 * 4||
w: |||||||
 D,2 ^C,2 D,2 F,2 | E,2 A,,2 C,2 D,2 | A,,2 G,,2 F,,2 E,2 | D,2 C,2 B,,2 A,,2 | E,4 A,,4 || %130
w: * * * 6|||* * 6 *||
w: |||||
[M:3/2] A,,8 D,4 | G,,8 A,,4 | D,,8 D,4 | G,8 A,4 | D,8 G,4 | C,8 D,4 | G,,8 G,4 | %137
w: |||||||
w: |||||||
[M:3/2] C,8 D,4 ||[M:4/4] G,,4 C,2 A,,2 | E,4 E,2 A,2 | G,4 C,2 E,2 | D,2 F,2 E,2 A,,2 | %142
w: |||||
w: |||||
[M:4/4] ^G,2 A,=G, F,2 A,2 | G,4 C,4 ||[M:3/2] G,8 G,4 | C,8 D,4 | G,,8 G,4 | C,8 D,4 | %148
w: ||||||
w: ||||||
[M:3/2] G,,8 C,4 | F,,8 G,,4 | C,8 C,4 | F,8 G,4 ||[M:4/4] C,4 z2 C,2- | C,2 A,,2 E,4 | %154
w: |||||* 6 *|
w: ||||||
 z2 E,4 A,2 |[M:4/4] G,4 C,4 | D,2 F,2 x2- x2 | A,,2 G,,2 F,,2 x-x | x2- x2 x2 x2 | %159
w: * 6||* 6 4|* * * 6|6|
w: ||||3|
 !fermata!C,16 |] %160
w: |
w: |

